static/images/ghent-university-library-logo.svg

<svg fill="none" height="18" viewBox="0 0 211 18" width="211" xmlns="http://www.w3.org/2000/svg"><g fill="#040606"><path d="m0 0v2.29409h4.68003v13.70591h2.29405v-13.70591h4.68002v-2.29409z"/><path d="m0 16h2.2941v-11.41187h-2.2941z"/><path d="m9.36003 16h2.29417v-11.41187h-2.29417z"/><path d="m30.9151 12.198h-.068c-.1247.578-.4647 1.0597-1.02 1.445-.544.374-1.2694.561-2.176.561-.7027 0-1.3544-.1303-1.955-.391-.6007-.272-1.122-.663-1.564-1.173-.4307-.5213-.7707-1.1617-1.02-1.921-.238-.77067-.357-1.65467-.357-2.652 0-.986.1246-1.85867.374-2.618.2493-.77067.6006-1.41667 1.054-1.938.4533-.52133.9973-.91233 1.632-1.173.6346-.272 1.343-.408 2.125-.408 1.0653 0 1.9663.238 2.703.714.7366.46467 1.309 1.11633 1.717 1.955l-1.564.918c-.2267-.55533-.578-1.003-1.054-1.343-.476-.35133-1.0767-.527-1.802-.527-.9407 0-1.7.30033-2.278.901-.5667.60067-.85 1.45067-.85 2.55v1.938c0 1.0993.2833 1.9493.85 2.55.578.6007 1.3373.901 2.278.901.374 0 .731-.0453 1.071-.136.34-.102.6346-.2437.884-.425.2606-.1927.4646-.425.612-.697.1586-.2833.238-.612.238-.986v-.918h-2.448v-1.649h4.301v6.324h-1.683z"/><path d="m35.1324 1.42h1.853v5.202h.085c.1927-.476.4817-.87267.867-1.19.3967-.31733.935-.476 1.615-.476.9067 0 1.6093.30033 2.108.901.51.58933.765 1.43367.765 2.533v5.61h-1.853v-5.389c0-1.37133-.5553-2.057-1.666-2.057-.238 0-.476.034-.714.102-.2267.05667-.4307.14733-.612.272s-.3287.28333-.442.476c-.102.19267-.153.41367-.153.663v5.933h-1.853z"/><path d="m48.4617 14.204c-.6346 0-1.2013-.1077-1.7-.323-.4986-.2153-.9236-.5213-1.275-.918-.3513-.408-.6233-.8953-.816-1.462-.1813-.578-.272-1.2183-.272-1.921 0-.70267.0907-1.33733.272-1.904.1927-.578.4647-1.06533.816-1.462.3514-.408.7764-.71967 1.275-.935.4987-.21533 1.0654-.323 1.7-.323.646 0 1.2127.11333 1.7.34.4987.22667.9124.544 1.241.952.3287.39667.5724.86133.731 1.394.17.53267.255 1.105.255 1.717v.697h-6.069v.289c0 .68.1984 1.241.595 1.683.408.4307.986.646 1.734.646.544 0 1.003-.119 1.377-.357s.6914-.561.952-.969l1.088 1.071c-.3286.544-.8046.9803-1.428 1.309-.6233.3173-1.3486.476-2.176.476zm0-7.803c-.3173 0-.612.05667-.884.17-.2606.11333-.4873.272-.68.476-.1813.204-.323.44767-.425.731s-.153.595-.153.935v.119h4.114v-.17c0-.68-.1756-1.224-.527-1.632-.3513-.41933-.833-.629-1.445-.629z"/><path d="m54.44 14v-8.84h1.853v1.462h.085c.1927-.476.4817-.87267.867-1.19.3967-.31733.935-.476 1.615-.476.9067 0 1.6093.30033 2.108.901.51.58933.765 1.43367.765 2.533v5.61h-1.853v-5.372c0-1.38267-.5553-2.074-1.666-2.074-.238 0-.476.034-.714.102-.2267.05667-.4307.14733-.612.272s-.3287.28333-.442.476c-.102.19267-.153.41933-.153.68v5.916z"/><path d="m66.7493 14c-.646 0-1.1333-.1643-1.462-.493-.3286-.34-.493-.816-.493-1.428v-5.406h-1.377v-1.513h.748c.306 0 .5157-.068.629-.204.1247-.136.187-.357.187-.663v-1.547h1.666v2.414h1.853v1.513h-1.853v5.814h1.717v1.513z"/><path d="m76.4829 2.134v7.31c0 1.0087.1927 1.768.578 2.278s1.0427.765 1.972.765 1.5867-.255 1.972-.765.578-1.2693.578-2.278v-7.31h1.887v7.004c0 .8727-.0793 1.6263-.238 2.261s-.4137 1.1617-.765 1.581c-.3513.408-.8103.714-1.377.918-.5553.204-1.241.306-2.057.306s-1.5073-.102-2.074-.306c-.5553-.204-1.0087-.51-1.36-.918-.3513-.4193-.6063-.9463-.765-1.581s-.238-1.3883-.238-2.261v-7.004z"/><path d="m86.1822 14v-8.84h1.853v1.462h.085c.1927-.476.4817-.87267.867-1.19.3967-.31733.935-.476 1.615-.476.9067 0 1.6093.30033 2.108.901.51.58933.765 1.43367.765 2.533v5.61h-1.853v-5.372c0-1.38267-.5553-2.074-1.666-2.074-.238 0-.476.034-.714.102-.2267.05667-.4307.14733-.612.272s-.3287.28333-.442.476c-.102.19267-.153.41933-.153.68v5.916z"/><path d="m96.9785 3.579c-.3853 0-.6686-.09067-.85-.272-.17-.18133-.255-.41367-.255-.697v-.289c0-.28333.085-.51567.255-.697.1814-.18133.4647-.272.85-.272.3854 0 .663.09067.833.272s.255.41367.255.697v.289c0 .28333-.085.51567-.255.697s-.4476.272-.833.272zm-.935 1.581h1.853v8.84h-1.853z"/><path d="m102.464 14-3.0094-8.84h1.8364l1.343 4.029.901 3.094h.102l.901-3.094 1.377-4.029h1.768l-3.043 8.84z"/><path d="m112.577 14.204c-.635 0-1.201-.1077-1.7-.323s-.924-.5213-1.275-.918c-.351-.408-.623-.8953-.816-1.462-.181-.578-.272-1.2183-.272-1.921 0-.70267.091-1.33733.272-1.904.193-.578.465-1.06533.816-1.462.351-.408.776-.71967 1.275-.935s1.065-.323 1.7-.323c.646 0 1.213.11333 1.7.34.499.22667.912.544 1.241.952.329.39667.572.86133.731 1.394.17.53267.255 1.105.255 1.717v.697h-6.069v.289c0 .68.198 1.241.595 1.683.408.4307.986.646 1.734.646.544 0 1.003-.119 1.377-.357s.691-.561.952-.969l1.088 1.071c-.329.544-.805.9803-1.428 1.309-.623.3173-1.349.476-2.176.476zm0-7.803c-.317 0-.612.05667-.884.17-.261.11333-.487.272-.68.476-.181.204-.323.44767-.425.731s-.153.595-.153.935v.119h4.114v-.17c0-.68-.176-1.224-.527-1.632-.351-.41933-.833-.629-1.445-.629z"/><path d="m118.555 14v-8.84h1.853v1.7h.085c.125-.45333.386-.85.782-1.19.397-.34.947-.51 1.649-.51h.493v1.785h-.731c-.736 0-1.303.119-1.7.357-.385.238-.578.58933-.578 1.054v5.644z"/><path d="m127.868 14.204c-.839 0-1.541-.1473-2.108-.442s-1.06-.7027-1.479-1.224l1.19-1.088c.329.3967.691.7083 1.088.935.408.2153.878.323 1.411.323.544 0 .946-.102 1.207-.306.272-.2153.408-.51.408-.884 0-.2833-.096-.5213-.289-.714-.181-.204-.504-.3343-.969-.391l-.816-.102c-.907-.1133-1.621-.374-2.142-.782-.51-.41933-.765-1.037-.765-1.853 0-.43067.079-.81033.238-1.139.159-.34.38-.62333.663-.85.295-.238.64-.41933 1.037-.544.408-.12467.856-.187 1.343-.187.793 0 1.439.12467 1.938.374.51.24933.963.595 1.36 1.037l-1.139 1.088c-.227-.272-.527-.50433-.901-.697-.363-.204-.782-.306-1.258-.306-.51 0-.89.102-1.139.306-.238.204-.357.47033-.357.799 0 .34.108.595.323.765s.561.29467 1.037.374l.816.102c.975.14733 1.683.43633 2.125.867.453.4193.68.986.68 1.7 0 .4307-.085.8217-.255 1.173-.159.34-.391.6347-.697.884s-.674.442-1.105.578-.912.204-1.445.204z"/><path d="m134.398 3.579c-.385 0-.668-.09067-.85-.272-.17-.18133-.255-.41367-.255-.697v-.289c0-.28333.085-.51567.255-.697.182-.18133.465-.272.85-.272.386 0 .663.09067.833.272s.255.41367.255.697v.289c0 .28333-.085.51567-.255.697s-.447.272-.833.272zm-.935 1.581h1.853v8.84h-1.853z"/><path d="m140.41 14c-.646 0-1.133-.1643-1.462-.493-.328-.34-.493-.816-.493-1.428v-5.406h-1.377v-1.513h.748c.306 0 .516-.068.629-.204.125-.136.187-.357.187-.663v-1.547h1.666v2.414h1.853v1.513h-1.853v5.814h1.717v1.513z"/><path d="m149.594 5.16h1.785l-3.723 10.591c-.102.2947-.221.544-.357.748-.124.2153-.277.3853-.459.51-.17.136-.379.2323-.629.289-.249.068-.544.102-.884.102h-1.071v-1.513h1.496l.51-1.496-3.213-9.231h1.853l1.768 5.202.51 1.921h.085l.561-1.921z"/><path d="m157.057 14v-11.866h1.921v10.166h4.828v1.7z"/><path d="m166.572 3.579c-.385 0-.668-.09067-.85-.272-.17-.18133-.255-.41367-.255-.697v-.289c0-.28333.085-.51567.255-.697.182-.18133.465-.272.85-.272.386 0 .663.09067.833.272s.255.41367.255.697v.289c0 .28333-.085.51567-.255.697s-.447.272-.833.272zm-.935 1.581h1.853v8.84h-1.853z"/><path d="m170.136 1.42h1.853v5.202h.085c.193-.53267.505-.94067.935-1.224.442-.29467.958-.442 1.547-.442 1.122 0 1.989.408 2.601 1.224.612.80467.918 1.938.918 3.4s-.306 2.601-.918 3.417c-.612.8047-1.479 1.207-2.601 1.207-.589 0-1.105-.1473-1.547-.442-.43-.2947-.742-.7027-.935-1.224h-.085v1.462h-1.853zm3.859 11.186c.646 0 1.162-.204 1.547-.612.386-.4193.578-.969.578-1.649v-1.53c0-.68-.192-1.224-.578-1.632-.385-.41933-.901-.629-1.547-.629-.566 0-1.042.14167-1.428.425-.385.272-.578.63467-.578 1.088v3.026c0 .4533.193.8217.578 1.105.386.272.862.408 1.428.408z"/><path d="m180.197 14v-8.84h1.853v1.7h.085c.125-.45333.385-.85.782-1.19s.946-.51 1.649-.51h.493v1.785h-.731c-.737 0-1.303.119-1.7.357-.385.238-.578.58933-.578 1.054v5.644z"/><path d="m193.049 14c-.487 0-.861-.136-1.122-.408-.261-.2833-.419-.6403-.476-1.071h-.085c-.17.5553-.482.9747-.935 1.258s-1.003.425-1.649.425c-.918 0-1.626-.238-2.125-.714-.487-.476-.731-1.1163-.731-1.921 0-.884.317-1.547.952-1.989.646-.442 1.587-.663 2.822-.663h1.598v-.748c0-.544-.147-.96333-.442-1.258s-.754-.442-1.377-.442c-.521 0-.946.11333-1.275.34s-.606.51567-.833.867l-1.105-1.003c.295-.49867.708-.90667 1.241-1.224.533-.32867 1.23-.493 2.091-.493 1.145 0 2.023.26633 2.635.799s.918 1.29767.918 2.295v4.437h.935v1.513zm-3.74-1.207c.578 0 1.054-.1247 1.428-.374.374-.2607.561-.6063.561-1.037v-1.275h-1.564c-1.281 0-1.921.3967-1.921 1.19v.306c0 .3967.13.697.391.901.272.1927.64.289 1.105.289z"/><path d="m195.902 14v-8.84h1.853v1.7h.085c.125-.45333.385-.85.782-1.19s.946-.51 1.649-.51h.493v1.785h-.731c-.737 0-1.303.119-1.7.357-.385.238-.578.58933-.578 1.054v5.644z"/><path d="m207.982 5.16h1.785l-3.723 10.591c-.102.2947-.221.544-.357.748-.125.2153-.278.3853-.459.51-.17.136-.38.2323-.629.289-.249.068-.544.102-.884.102h-1.071v-1.513h1.496l.51-1.496-3.213-9.231h1.853l1.768 5.202.51 1.921h.085l.561-1.921z"/></g></svg>

<svg width="211" height="18" viewBox="0 0 211 18" fill="none" xmlns="http://www.w3.org/2000/svg">
<path d="M0 0V2.29409H4.68003V16H6.97408V2.29409H11.6541V0H0Z" fill="#040606"/>
<path d="M0 16H2.2941V4.58813H0V16Z" fill="#040606"/>
<path d="M9.36003 16H11.6542V4.58813H9.36003V16Z" fill="#040606"/>
<path d="M30.9151 12.198H30.8471C30.7224 12.776 30.3824 13.2577 29.8271 13.643C29.2831 14.017 28.5577 14.204 27.6511 14.204C26.9484 14.204 26.2967 14.0737 25.6961 13.813C25.0954 13.541 24.5741 13.15 24.1321 12.64C23.7014 12.1187 23.3614 11.4783 23.1121 10.719C22.8741 9.94833 22.7551 9.06433 22.7551 8.067C22.7551 7.081 22.8797 6.20833 23.1291 5.449C23.3784 4.67833 23.7297 4.03233 24.1831 3.511C24.6364 2.98967 25.1804 2.59867 25.8151 2.338C26.4497 2.066 27.1581 1.93 27.9401 1.93C29.0054 1.93 29.9064 2.168 30.6431 2.644C31.3797 3.10867 31.9521 3.76033 32.3601 4.599L30.7961 5.517C30.5694 4.96167 30.2181 4.514 29.7421 4.174C29.2661 3.82267 28.6654 3.647 27.9401 3.647C26.9994 3.647 26.2401 3.94733 25.6621 4.548C25.0954 5.14867 24.8121 5.99867 24.8121 7.098V9.036C24.8121 10.1353 25.0954 10.9853 25.6621 11.586C26.2401 12.1867 26.9994 12.487 27.9401 12.487C28.3141 12.487 28.6711 12.4417 29.0111 12.351C29.3511 12.249 29.6457 12.1073 29.8951 11.926C30.1557 11.7333 30.3597 11.501 30.5071 11.229C30.6657 10.9457 30.7451 10.617 30.7451 10.243V9.325H28.2971V7.676H32.5981V14H30.9151V12.198Z" fill="#040606"/>
<path d="M35.1324 1.42H36.9854V6.622H37.0704C37.2631 6.146 37.5521 5.74933 37.9374 5.432C38.3341 5.11467 38.8724 4.956 39.5524 4.956C40.4591 4.956 41.1617 5.25633 41.6604 5.857C42.1704 6.44633 42.4254 7.29067 42.4254 8.39V14H40.5724V8.611C40.5724 7.23967 40.0171 6.554 38.9064 6.554C38.6684 6.554 38.4304 6.588 38.1924 6.656C37.9657 6.71267 37.7617 6.80333 37.5804 6.928C37.3991 7.05267 37.2517 7.21133 37.1384 7.404C37.0364 7.59667 36.9854 7.81767 36.9854 8.067V14H35.1324V1.42Z" fill="#040606"/>
<path d="M48.4617 14.204C47.8271 14.204 47.2604 14.0963 46.7617 13.881C46.2631 13.6657 45.8381 13.3597 45.4867 12.963C45.1354 12.555 44.8634 12.0677 44.6707 11.501C44.4894 10.923 44.3987 10.2827 44.3987 9.58C44.3987 8.87733 44.4894 8.24267 44.6707 7.676C44.8634 7.098 45.1354 6.61067 45.4867 6.214C45.8381 5.806 46.2631 5.49433 46.7617 5.279C47.2604 5.06367 47.8271 4.956 48.4617 4.956C49.1077 4.956 49.6744 5.06933 50.1617 5.296C50.6604 5.52267 51.0741 5.84 51.4027 6.248C51.7314 6.64467 51.9751 7.10933 52.1337 7.642C52.3037 8.17467 52.3887 8.747 52.3887 9.359V10.056H46.3197V10.345C46.3197 11.025 46.5181 11.586 46.9147 12.028C47.3227 12.4587 47.9007 12.674 48.6487 12.674C49.1927 12.674 49.6517 12.555 50.0257 12.317C50.3997 12.079 50.7171 11.756 50.9777 11.348L52.0657 12.419C51.7371 12.963 51.2611 13.3993 50.6377 13.728C50.0144 14.0453 49.2891 14.204 48.4617 14.204ZM48.4617 6.401C48.1444 6.401 47.8497 6.45767 47.5777 6.571C47.3171 6.68433 47.0904 6.843 46.8977 7.047C46.7164 7.251 46.5747 7.49467 46.4727 7.778C46.3707 8.06133 46.3197 8.373 46.3197 8.713V8.832H50.4337V8.662C50.4337 7.982 50.2581 7.438 49.9067 7.03C49.5554 6.61067 49.0737 6.401 48.4617 6.401Z" fill="#040606"/>
<path d="M54.44 14V5.16H56.293V6.622H56.378C56.5707 6.146 56.8597 5.74933 57.245 5.432C57.6417 5.11467 58.18 4.956 58.86 4.956C59.7667 4.956 60.4693 5.25633 60.968 5.857C61.478 6.44633 61.733 7.29067 61.733 8.39V14H59.88V8.628C59.88 7.24533 59.3247 6.554 58.214 6.554C57.976 6.554 57.738 6.588 57.5 6.656C57.2733 6.71267 57.0693 6.80333 56.888 6.928C56.7067 7.05267 56.5593 7.21133 56.446 7.404C56.344 7.59667 56.293 7.82333 56.293 8.084V14H54.44Z" fill="#040606"/>
<path d="M66.7493 14C66.1033 14 65.616 13.8357 65.2873 13.507C64.9587 13.167 64.7943 12.691 64.7943 12.079V6.673H63.4173V5.16H64.1653C64.4713 5.16 64.681 5.092 64.7943 4.956C64.919 4.82 64.9813 4.599 64.9813 4.293V2.746H66.6473V5.16H68.5003V6.673H66.6473V12.487H68.3643V14H66.7493Z" fill="#040606"/>
<path d="M76.4829 2.134V9.444C76.4829 10.4527 76.6756 11.212 77.0609 11.722C77.4462 12.232 78.1036 12.487 79.0329 12.487C79.9622 12.487 80.6196 12.232 81.0049 11.722C81.3902 11.212 81.5829 10.4527 81.5829 9.444V2.134H83.4699V9.138C83.4699 10.0107 83.3906 10.7643 83.2319 11.399C83.0732 12.0337 82.8182 12.5607 82.4669 12.98C82.1156 13.388 81.6566 13.694 81.0899 13.898C80.5346 14.102 79.8489 14.204 79.0329 14.204C78.2169 14.204 77.5256 14.102 76.9589 13.898C76.4036 13.694 75.9502 13.388 75.5989 12.98C75.2476 12.5607 74.9926 12.0337 74.8339 11.399C74.6752 10.7643 74.5959 10.0107 74.5959 9.138V2.134H76.4829Z" fill="#040606"/>
<path d="M86.1822 14V5.16H88.0352V6.622H88.1202C88.3129 6.146 88.6019 5.74933 88.9872 5.432C89.3839 5.11467 89.9222 4.956 90.6022 4.956C91.5089 4.956 92.2115 5.25633 92.7102 5.857C93.2202 6.44633 93.4752 7.29067 93.4752 8.39V14H91.6222V8.628C91.6222 7.24533 91.0669 6.554 89.9562 6.554C89.7182 6.554 89.4802 6.588 89.2422 6.656C89.0155 6.71267 88.8115 6.80333 88.6302 6.928C88.4489 7.05267 88.3015 7.21133 88.1882 7.404C88.0862 7.59667 88.0352 7.82333 88.0352 8.084V14H86.1822Z" fill="#040606"/>
<path d="M96.9785 3.579C96.5932 3.579 96.3099 3.48833 96.1285 3.307C95.9585 3.12567 95.8735 2.89333 95.8735 2.61V2.321C95.8735 2.03767 95.9585 1.80533 96.1285 1.624C96.3099 1.44267 96.5932 1.352 96.9785 1.352C97.3639 1.352 97.6415 1.44267 97.8115 1.624C97.9815 1.80533 98.0665 2.03767 98.0665 2.321V2.61C98.0665 2.89333 97.9815 3.12567 97.8115 3.307C97.6415 3.48833 97.3639 3.579 96.9785 3.579ZM96.0435 5.16H97.8965V14H96.0435V5.16Z" fill="#040606"/>
<path d="M102.464 14L99.4546 5.16H101.291L102.634 9.189L103.535 12.283H103.637L104.538 9.189L105.915 5.16H107.683L104.64 14H102.464Z" fill="#040606"/>
<path d="M112.577 14.204C111.942 14.204 111.376 14.0963 110.877 13.881C110.378 13.6657 109.953 13.3597 109.602 12.963C109.251 12.555 108.979 12.0677 108.786 11.501C108.605 10.923 108.514 10.2827 108.514 9.58C108.514 8.87733 108.605 8.24267 108.786 7.676C108.979 7.098 109.251 6.61067 109.602 6.214C109.953 5.806 110.378 5.49433 110.877 5.279C111.376 5.06367 111.942 4.956 112.577 4.956C113.223 4.956 113.79 5.06933 114.277 5.296C114.776 5.52267 115.189 5.84 115.518 6.248C115.847 6.64467 116.09 7.10933 116.249 7.642C116.419 8.17467 116.504 8.747 116.504 9.359V10.056H110.435V10.345C110.435 11.025 110.633 11.586 111.03 12.028C111.438 12.4587 112.016 12.674 112.764 12.674C113.308 12.674 113.767 12.555 114.141 12.317C114.515 12.079 114.832 11.756 115.093 11.348L116.181 12.419C115.852 12.963 115.376 13.3993 114.753 13.728C114.13 14.0453 113.404 14.204 112.577 14.204ZM112.577 6.401C112.26 6.401 111.965 6.45767 111.693 6.571C111.432 6.68433 111.206 6.843 111.013 7.047C110.832 7.251 110.69 7.49467 110.588 7.778C110.486 8.06133 110.435 8.373 110.435 8.713V8.832H114.549V8.662C114.549 7.982 114.373 7.438 114.022 7.03C113.671 6.61067 113.189 6.401 112.577 6.401Z" fill="#040606"/>
<path d="M118.555 14V5.16H120.408V6.86H120.493C120.618 6.40667 120.879 6.01 121.275 5.67C121.672 5.33 122.222 5.16 122.924 5.16H123.417V6.945H122.686C121.95 6.945 121.383 7.064 120.986 7.302C120.601 7.54 120.408 7.89133 120.408 8.356V14H118.555Z" fill="#040606"/>
<path d="M127.868 14.204C127.029 14.204 126.327 14.0567 125.76 13.762C125.193 13.4673 124.7 13.0593 124.281 12.538L125.471 11.45C125.8 11.8467 126.162 12.1583 126.559 12.385C126.967 12.6003 127.437 12.708 127.97 12.708C128.514 12.708 128.916 12.606 129.177 12.402C129.449 12.1867 129.585 11.892 129.585 11.518C129.585 11.2347 129.489 10.9967 129.296 10.804C129.115 10.6 128.792 10.4697 128.327 10.413L127.511 10.311C126.604 10.1977 125.89 9.937 125.369 9.529C124.859 9.10967 124.604 8.492 124.604 7.676C124.604 7.24533 124.683 6.86567 124.842 6.537C125.001 6.197 125.222 5.91367 125.505 5.687C125.8 5.449 126.145 5.26767 126.542 5.143C126.95 5.01833 127.398 4.956 127.885 4.956C128.678 4.956 129.324 5.08067 129.823 5.33C130.333 5.57933 130.786 5.925 131.183 6.367L130.044 7.455C129.817 7.183 129.517 6.95067 129.143 6.758C128.78 6.554 128.361 6.452 127.885 6.452C127.375 6.452 126.995 6.554 126.746 6.758C126.508 6.962 126.389 7.22833 126.389 7.557C126.389 7.897 126.497 8.152 126.712 8.322C126.927 8.492 127.273 8.61667 127.749 8.696L128.565 8.798C129.54 8.94533 130.248 9.23433 130.69 9.665C131.143 10.0843 131.37 10.651 131.37 11.365C131.37 11.7957 131.285 12.1867 131.115 12.538C130.956 12.878 130.724 13.1727 130.418 13.422C130.112 13.6713 129.744 13.864 129.313 14C128.882 14.136 128.401 14.204 127.868 14.204Z" fill="#040606"/>
<path d="M134.398 3.579C134.013 3.579 133.73 3.48833 133.548 3.307C133.378 3.12567 133.293 2.89333 133.293 2.61V2.321C133.293 2.03767 133.378 1.80533 133.548 1.624C133.73 1.44267 134.013 1.352 134.398 1.352C134.784 1.352 135.061 1.44267 135.231 1.624C135.401 1.80533 135.486 2.03767 135.486 2.321V2.61C135.486 2.89333 135.401 3.12567 135.231 3.307C135.061 3.48833 134.784 3.579 134.398 3.579ZM133.463 5.16H135.316V14H133.463V5.16Z" fill="#040606"/>
<path d="M140.41 14C139.764 14 139.277 13.8357 138.948 13.507C138.62 13.167 138.455 12.691 138.455 12.079V6.673H137.078V5.16H137.826C138.132 5.16 138.342 5.092 138.455 4.956C138.58 4.82 138.642 4.599 138.642 4.293V2.746H140.308V5.16H142.161V6.673H140.308V12.487H142.025V14H140.41Z" fill="#040606"/>
<path d="M149.594 5.16H151.379L147.656 15.751C147.554 16.0457 147.435 16.295 147.299 16.499C147.175 16.7143 147.022 16.8843 146.84 17.009C146.67 17.145 146.461 17.2413 146.211 17.298C145.962 17.366 145.667 17.4 145.327 17.4H144.256V15.887H145.752L146.262 14.391L143.049 5.16H144.902L146.67 10.362L147.18 12.283H147.265L147.826 10.362L149.594 5.16Z" fill="#040606"/>
<path d="M157.057 14V2.134H158.978V12.3H163.806V14H157.057Z" fill="#040606"/>
<path d="M166.572 3.579C166.187 3.579 165.904 3.48833 165.722 3.307C165.552 3.12567 165.467 2.89333 165.467 2.61V2.321C165.467 2.03767 165.552 1.80533 165.722 1.624C165.904 1.44267 166.187 1.352 166.572 1.352C166.958 1.352 167.235 1.44267 167.405 1.624C167.575 1.80533 167.66 2.03767 167.66 2.321V2.61C167.66 2.89333 167.575 3.12567 167.405 3.307C167.235 3.48833 166.958 3.579 166.572 3.579ZM165.637 5.16H167.49V14H165.637V5.16Z" fill="#040606"/>
<path d="M170.136 1.42H171.989V6.622H172.074C172.267 6.08933 172.579 5.68133 173.009 5.398C173.451 5.10333 173.967 4.956 174.556 4.956C175.678 4.956 176.545 5.364 177.157 6.18C177.769 6.98467 178.075 8.118 178.075 9.58C178.075 11.042 177.769 12.181 177.157 12.997C176.545 13.8017 175.678 14.204 174.556 14.204C173.967 14.204 173.451 14.0567 173.009 13.762C172.579 13.4673 172.267 13.0593 172.074 12.538H171.989V14H170.136V1.42ZM173.995 12.606C174.641 12.606 175.157 12.402 175.542 11.994C175.928 11.5747 176.12 11.025 176.12 10.345V8.815C176.12 8.135 175.928 7.591 175.542 7.183C175.157 6.76367 174.641 6.554 173.995 6.554C173.429 6.554 172.953 6.69567 172.567 6.979C172.182 7.251 171.989 7.61367 171.989 8.067V11.093C171.989 11.5463 172.182 11.9147 172.567 12.198C172.953 12.47 173.429 12.606 173.995 12.606Z" fill="#040606"/>
<path d="M180.197 14V5.16H182.05V6.86H182.135C182.26 6.40667 182.52 6.01 182.917 5.67C183.314 5.33 183.863 5.16 184.566 5.16H185.059V6.945H184.328C183.591 6.945 183.025 7.064 182.628 7.302C182.243 7.54 182.05 7.89133 182.05 8.356V14H180.197Z" fill="#040606"/>
<path d="M193.049 14C192.562 14 192.188 13.864 191.927 13.592C191.666 13.3087 191.508 12.9517 191.451 12.521H191.366C191.196 13.0763 190.884 13.4957 190.431 13.779C189.978 14.0623 189.428 14.204 188.782 14.204C187.864 14.204 187.156 13.966 186.657 13.49C186.17 13.014 185.926 12.3737 185.926 11.569C185.926 10.685 186.243 10.022 186.878 9.58C187.524 9.138 188.465 8.917 189.7 8.917H191.298V8.169C191.298 7.625 191.151 7.20567 190.856 6.911C190.561 6.61633 190.102 6.469 189.479 6.469C188.958 6.469 188.533 6.58233 188.204 6.809C187.875 7.03567 187.598 7.32467 187.371 7.676L186.266 6.673C186.561 6.17433 186.974 5.76633 187.507 5.449C188.04 5.12033 188.737 4.956 189.598 4.956C190.743 4.956 191.621 5.22233 192.233 5.755C192.845 6.28767 193.151 7.05267 193.151 8.05V12.487H194.086V14H193.049ZM189.309 12.793C189.887 12.793 190.363 12.6683 190.737 12.419C191.111 12.1583 191.298 11.8127 191.298 11.382V10.107H189.734C188.453 10.107 187.813 10.5037 187.813 11.297V11.603C187.813 11.9997 187.943 12.3 188.204 12.504C188.476 12.6967 188.844 12.793 189.309 12.793Z" fill="#040606"/>
<path d="M195.902 14V5.16H197.755V6.86H197.84C197.965 6.40667 198.225 6.01 198.622 5.67C199.019 5.33 199.568 5.16 200.271 5.16H200.764V6.945H200.033C199.296 6.945 198.73 7.064 198.333 7.302C197.948 7.54 197.755 7.89133 197.755 8.356V14H195.902Z" fill="#040606"/>
<path d="M207.982 5.16H209.767L206.044 15.751C205.942 16.0457 205.823 16.295 205.687 16.499C205.562 16.7143 205.409 16.8843 205.228 17.009C205.058 17.145 204.848 17.2413 204.599 17.298C204.35 17.366 204.055 17.4 203.715 17.4H202.644V15.887H204.14L204.65 14.391L201.437 5.16H203.29L205.058 10.362L205.568 12.283H205.653L206.214 10.362L207.982 5.16Z" fill="#040606"/>
</svg>
